dist/svgs/carbon-icons/svg/light-glyph.svg

<svg xmlns="http://www.w3.org/2000/svg" fill-rule="evenodd" viewBox="0 0 18 18"><circle cx="9.1" cy="9" r="4"/><path d="M9.1 18h-.2c-.5 0-.9-.4-.9-.9V15c0-.6.4-1 .9-1H9c.6 0 1 .4 1 .9V17c0 .6-.4 1-.9 1zm7-2.3c-.5.5-1 .5-1.4.1l-1.5-1.5c-.4-.4-.4-1 0-1.3l.1-.1c.4-.4 1-.4 1.3 0l1.5 1.5c.3.4.3 1 0 1.3zm-13.8.1c-.5-.5-.5-1-.1-1.4l1.5-1.5c.4-.4 1-.4 1.3 0l.1.1c.4.4.4 1 0 1.3l-1.5 1.5c-.4.4-1 .4-1.3 0zM8.9 0c.7 0 1.1.4 1.1.9V3c0 .6-.4 1-.9 1h-.2c-.5 0-.9-.4-.9-.9V.9c0-.5.4-.9.9-.9zM2.2 2.2c.5-.5 1-.5 1.4-.1l1.5 1.5c.4.4.4 1 0 1.3L5 5c-.4.4-1 .4-1.3 0L2.2 3.5c-.4-.4-.4-1 0-1.3zm13.7-.1c.5.5.5 1 .1 1.4L14.6 5c-.4.4-1 .4-1.3 0l-.1-.1c-.4-.4-.4-1 0-1.3l1.5-1.5c.2-.4.9-.4 1.2 0zM.1 9.1V9c0-.5.4-.9.9-.9h2.1c.6-.1 1 .3 1 .8V9c0 .6-.4 1-.9 1H1.1c-.6 0-1-.4-1-.9zm14 0V9c0-.5.4-.9.9-.9h2.1c.5 0 .9.4.9.9v.1c0 .5-.4.9-.9.9H15c-.6 0-.9-.4-.9-.9z"/></svg>

<svg width="18px" height="18px" viewBox="0 0 18 18" version="1.1" xmlns="http://www.w3.org/2000/svg" xmlns:xlink="http://www.w3.org/1999/xlink" fill-rule="evenodd">
    <circle id="Oval" cx="9.1" cy="9" r="4"></circle>
    <path d="M9.1,18 L8.9,18 C8.4,18 8,17.6 8,17.1 L8,15 C8,14.4 8.4,14 8.9,14 L9,14 C9.6,14 10,14.4 10,14.9 L10,17 C10,17.6 9.6,18 9.1,18 L9.1,18 Z" id="Shape"></path>
    <path d="M16.1,15.7 L16.1,15.7 C15.6,16.2 15.1,16.2 14.7,15.8 L13.2,14.3 C12.8,13.9 12.8,13.3 13.2,13 L13.3,12.9 C13.7,12.5 14.3,12.5 14.6,12.9 L16.1,14.4 C16.4,14.8 16.4,15.4 16.1,15.7 L16.1,15.7 Z" id="Shape"></path>
    <path d="M2.3,15.8 L2.3,15.8 C1.8,15.3 1.8,14.8 2.2,14.4 L3.7,12.9 C4.1,12.5 4.7,12.5 5,12.9 L5.1,13 C5.5,13.4 5.5,14 5.1,14.3 L3.6,15.8 C3.2,16.2 2.6,16.2 2.3,15.8 L2.3,15.8 Z" id="Shape"></path>
    <path d="M8.9,0 L8.9,0 C9.6,0 10,0.4 10,0.9 L10,3 C10,3.6 9.6,4 9.1,4 L8.9,4 C8.4,4 8,3.6 8,3.1 L8,0.9 C8,0.4 8.4,0 8.9,0 L8.9,0 Z" id="Shape"></path>
    <path d="M2.2,2.2 L2.2,2.2 C2.7,1.7 3.2,1.7 3.6,2.1 L5.1,3.6 C5.5,4 5.5,4.6 5.1,4.9 L5,5 C4.6,5.4 4,5.4 3.7,5 L2.2,3.5 C1.8,3.1 1.8,2.5 2.2,2.2 L2.2,2.2 Z" id="Shape"></path>
    <path d="M15.9,2.1 L15.9,2.1 C16.4,2.6 16.4,3.1 16,3.5 L14.6,5 C14.2,5.4 13.6,5.4 13.3,5 L13.2,4.9 C12.8,4.5 12.8,3.9 13.2,3.6 L14.7,2.1 C14.9,1.7 15.6,1.7 15.9,2.1 L15.9,2.1 Z" id="Shape"></path>
    <path d="M0.1,9.1 L0.1,9 C0.1,8.5 0.5,8.1 1,8.1 L3.1,8.1 C3.7,8 4.1,8.4 4.1,8.9 L4.1,9 C4.1,9.6 3.7,10 3.2,10 L1.1,10 C0.5,10 0.1,9.6 0.1,9.1 L0.1,9.1 Z" id="Shape"></path>
    <path d="M14.1,9.1 L14.1,9 C14.1,8.5 14.5,8.1 15,8.1 L17.1,8.1 C17.6,8.1 18,8.5 18,9 L18,9.1 C18,9.6 17.6,10 17.1,10 L15,10 C14.4,10 14.1,9.6 14.1,9.1 L14.1,9.1 Z" id="Shape"></path>
</svg>
